X:37
T:score13
L:1/8
Q:1/4=96
M:1/4
I:linebreak $
K:F
 (C2 |[M:4/4] F4- F)(EFA | cf) f4 (ed | cf)(GA Bd)(FG |$ Ac) G4 (C2 | F4- F)(EFA | ca) a3 (g fe | %7
 fadf e3 e |[M:3/4] d2 e2 c2) |] %9
